src/media/facebook-icon.svg

<svg viewBox="0 0 106 106" xmlns="http://www.w3.org/2000/svg" xml:space="preserve" style="fill-rule:evenodd;clip-rule:evenodd;stroke-linejoin:round;stroke-miterlimit:2">
  <path d="M114 14.156C114 6.338 107.662 0 99.844 0H14.156C6.338 0 0 6.338 0 14.156v85.688C0 107.662 6.338 114 14.156 114h85.688c7.818 0 14.156-6.338 14.156-14.156V14.156Zm-12 9.02C102 17.004 96.996 12 90.824 12H23.176C17.004 12 12 17.004 12 23.176v67.648C12 96.996 17.004 102 23.176 102h67.648C96.996 102 102 96.996 102 90.824V23.176Z" style="fill:#635091" transform="translate(8 8) scale(.78948)"/>
  <path d="M93 31.281C93 25.603 88.397 21 82.719 21H31.281C25.603 21 21 25.603 21 31.281v51.438C21 88.397 25.603 93 31.281 93h51.438C88.397 93 93 88.397 93 82.719V31.281Z" style="fill:#392b55" transform="translate(.692 .692) scale(.91768)"/>
  <path d="m81 42 .438-9.097S64.22 27.241 63 42.75v12h-8.25V66H63v27h9.75V66h6.652L81 54.75h-7.5V46.5s-.193-4.951 7.5-4.5Z" style="fill:#e5ad66" transform="translate(8 8) scale(.78948)"/>
</svg>

<?xml version="1.0" encoding="UTF-8" standalone="no"?>
<!DOCTYPE svg PUBLIC "-//W3C//DTD SVG 1.1//EN" "http://www.w3.org/Graphics/SVG/1.1/DTD/svg11.dtd">
<svg width="100%" height="100%" viewBox="0 0 106 106" version="1.1" xmlns="http://www.w3.org/2000/svg" xmlns:xlink="http://www.w3.org/1999/xlink" xml:space="preserve" xmlns:serif="http://www.serif.com/" style="fill-rule:evenodd;clip-rule:evenodd;stroke-linejoin:round;stroke-miterlimit:2;">
    <g id="ICONS" transform="matrix(1.15385,0,0,1.15385,1.07692,1.07692)">
        <g transform="matrix(0.684211,0,0,0.684211,6,6)">
            <path d="M114,14.156C114,6.338 107.662,0 99.844,0L14.156,0C6.338,0 0,6.338 0,14.156L0,99.844C0,107.662 6.338,114 14.156,114L99.844,114C107.662,114 114,107.662 114,99.844L114,14.156ZM102,23.176C102,17.004 96.996,12 90.824,12L23.176,12C17.004,12 12,17.004 12,23.176L12,90.824C12,96.996 17.004,102 23.176,102L90.824,102C96.996,102 102,96.996 102,90.824L102,23.176Z" style="fill:#635091;"/>
        </g>
        <g transform="matrix(0.795322,0,0,0.795322,-0.333333,-0.333333)">
            <path d="M93,31.281C93,25.603 88.397,21 82.719,21L31.281,21C25.603,21 21,25.603 21,31.281L21,82.719C21,88.397 25.603,93 31.281,93L82.719,93C88.397,93 93,88.397 93,82.719L93,31.281Z" style="fill:#392b55;"/>
        </g>
        <g transform="matrix(0.684211,0,0,0.684211,6,6)">
            <path d="M81,42L81.438,32.903C81.438,32.903 64.22,27.241 63,42.75L63,54.75L54.75,54.75L54.75,66L63,66L63,93L72.75,93L72.75,66L79.402,66L81,54.75L73.5,54.75L73.5,46.5C73.5,46.5 73.307,41.549 81,42Z" style="fill:#e5ad66;"/>
        </g>
    </g>
</svg>
